X:5
T:Busk Ye, Busk Ye
C:arr. Carlo Minasi
M:C
L:1/8
B:Chappell's One Hundred Scotch Melodies
B:Arranged for the Concertina by Carlo Minasi
Q:"Andante  "1/4=120
Z:Peter Dunk 2012
K:C
!p![G2E2]([A/F/]B/c)[G2E2](ce)|(fedc)[A2F2]z2|\
[G2E2]([A/F/]B/c)[G2E2] ([ec][fd)]|\
([ge][f/d/][e/c/]) ([dG]>[cE]) ([cE]>[dG]) [e2c2]|
%
[G2E2]([A/F/]B/c)[G2E2](ce)|(fedc) (BA) (e>d)|\
(cBAG) ([fd][ec][dG][cE])|([A3F3][GE]) ([AF]>[BF] [c2E2])||
%
([ec]>[dB][ec]>[fd]) [g3e3] e|(fedc) [A2F2]z2|\
(e>de>f) g3 f|(edcd) (e>fg>e)|
%
([ec]>[dB][ec]>[fd]) ([g2e2]fe)|(fedc) {B/}A2 (ed)|\
(cBAG) ([fd][ec][dG][cE])|([A3F3][GE]) ([AF]>[BF] [c2E2])|]

